X: 30
T: Free America  v.2
T: British Grenadiers
N: aka British Grenadiers
P: piffero secondo a0786
O: Dan Moylan
F: http://ancients.sudburymuster.org/mus/med/pdf/libertyC1.pdf
Z: 2019 John Chambers <jc:trillian.mit.edu>
M: 2/4
L: 1/16
K: D
E2 |\
F2E2 F2G2 | d2B2 A2G2 | F2F2 dcBA | F6 E2 |\
F2E2 F2G2 | d2B2 A2G2 | F2F2 dcBA | F6 ||
f2 |\
f2e2 f2e2 | d2e2 f2f2 | g2g2 dcBA | F4 E2E2 |\
F2E2 F2G2 | d2B2 A2G2 | F2F2 dcBA | F6 :|


